tools/download-figma-icons/icons/solid/emob-cable-smooth.svg

<svg width="24" height="24" viewBox="0 0 24 24" fill="none" xmlns="http://www.w3.org/2000/svg">
<path fill-rule="evenodd" clip-rule="evenodd" d="M23.7375 9.77015C23.0452 9.20916 20.6055 7.29593 18.1028 6.46193C15.6398 5.63394 13.4018 5.3392 12.5461 5.2507C12.5153 5.2507 12.4846 5.2432 12.4613 5.2432C12.1036 5.2432 11.7773 5.48694 11.7068 5.84169L11.6723 6.00519C10.3066 5.81544 9.86485 5.27095 9.3691 4.64845C8.78261 3.91346 8.05212 2.99997 5.99939 2.99997C4.14841 2.99997 2.99942 4.43695 2.99942 6.74993C2.99942 9.26391 5.28465 10.8164 7.49562 12.3171C9.4261 13.6281 11.2493 14.8663 11.2493 16.4998C11.2493 17.6203 10.9568 19.4998 8.99936 19.4998C7.21063 19.4998 6.66913 17.5978 6.53038 16.0018C6.42613 14.8063 5.94539 13.8479 5.10315 13.1526C3.38716 11.7366 0.782441 11.9901 0.670692 12.0044C0.259697 12.0464 -0.0380504 12.4146 0.00394921 12.8256C0.0466988 13.2366 0.428445 13.5321 0.825191 13.4961C0.845441 13.4931 2.92742 13.2974 4.15291 14.3136C4.67865 14.7494 4.9674 15.3441 5.03565 16.1316C5.30564 19.2253 6.75013 20.9998 8.99936 20.9998C11.7638 20.9998 12.7493 18.6748 12.7493 16.4998C12.7493 14.0714 10.5068 12.5489 8.33861 11.0759C6.36388 9.73565 4.4994 8.46966 4.4994 6.74993C4.4994 5.72319 4.7589 4.49995 5.99939 4.49995C7.33062 4.49995 7.67487 4.9312 8.19612 5.58444C8.77286 6.30519 9.47935 7.18043 11.3626 7.47292L11.2643 7.93942C11.1871 8.32267 11.4278 8.69916 11.8156 8.79516L15.7485 9.81515C16.8593 10.1024 16.992 10.4129 17.1623 10.8119C17.3025 11.1441 17.481 11.5581 18.1185 11.8979C18.849 12.2819 20.178 12.9981 20.8387 13.3454L20.9317 13.3971C21.048 13.4631 21.1807 13.4931 21.3127 13.4931C21.546 13.4931 21.7792 13.3896 21.9345 13.1976L23.8462 10.7751C24.087 10.4646 24.0397 10.0214 23.7375 9.77015Z" fill="black"/>
</svg>

<svg xmlns="http://www.w3.org/2000/svg" width="24" height="24" fill="none" viewBox="0 0 24 24"><path fill="currentColor" fill-rule="evenodd" d="M23.738 9.77c-.693-.56-3.133-2.474-5.635-3.308a27 27 0 0 0-5.557-1.211c-.03 0-.061-.008-.085-.008a.76.76 0 0 0-.754.599l-.035.163c-1.365-.19-1.807-.734-2.303-1.357C8.783 3.913 8.052 3 6 3 4.15 3 3 4.437 3 6.75c0 2.514 2.286 4.066 4.497 5.567 1.93 1.311 3.753 2.55 3.753 4.183 0 1.12-.292 3-2.25 3-1.788 0-2.33-1.902-2.469-3.498-.104-1.196-.585-2.154-1.427-2.85C3.387 11.738.783 11.99.671 12.005a.75.75 0 0 0-.667.822.764.764 0 0 0 .821.67c.02-.003 2.102-.199 3.328.818.526.435.814 1.03.883 1.818C5.306 19.225 6.75 21 8.999 21c2.765 0 3.75-2.325 3.75-4.5 0-2.429-2.242-3.951-4.41-5.424-1.975-1.34-3.84-2.606-3.84-4.326 0-1.027.26-2.25 1.5-2.25 1.332 0 1.676.431 2.197 1.084.577.721 1.283 1.596 3.167 1.889l-.099.466a.735.735 0 0 0 .552.856l3.932 1.02c1.111.287 1.244.598 1.414.997.14.332.319.746.957 1.086.73.384 2.059 1.1 2.72 1.447l.093.052a.8.8 0 0 0 1.003-.2l1.911-2.422a.726.726 0 0 0-.108-1.005" clip-rule="evenodd"/></svg>
